X: 45
T:Old Man Dillon
M:6/8
L:1/8
R:Double Jig
K:Ador
EAA ABd|edB c2A|BGG DGG|Bdc BAG|!
EAA ABd|ede a2g|edc Bcd|1 ecA A2G:|2 ecA A2f|]!
gef g2a|gef gdc|BGG DGG|Bdc BAG|!
gef g2a|gef gfe|edc Bcd|ecA A2f||!
gef g2a|gef gdc|BGG DGG|Bdc BAG|!
EAA ABd|ede a2g|edc Bcd|ecA A2G|]!
